X: 012
T: Miss Garden Campbell of Troup's Hornpipe
C: by Wm. Christie
R: minuet
B: William Christie's "A Collection of Strathspeys, Reels, Hornpipes, Waltzes, &c."
S: https://digital.nls.uk/special-collections-of-printed-music/archive/120545033
Z: 2022 John Chambers <jc:trillian.mit.edu>
M: 3/2
L: 1/8
Q: "Allegretto"
K: F
%%slurgraces yes
%%graceslurs yes
% = = = = = = = = = =
% Voice 1 reformatted for _ _-bar lines, for compactness and proofreading.
V: 1 staves=2
|: "_Dolce."\
[A2F2][AF][BG] {d}[c2A2][B2G2] {B}[A4F4] | (F2.[d2B2]) ({e}[d2B2].[c2A2]) ({d}[c2A2].[B2G2]) |\
[A2F2][AF][BG] {d}[c2A2][B2G2] {B}[A4F4] | [A2F2][B2G2] [G2E2][E2C2] [F4A,4] :|\
Tf2fg {b}a2g2 {g}Tf4 | ~d2f2 c2f2 {fg}a2g2 |
f2fg {b}a2g2 {g}f4 | ~d2fd (cb).a.g {g}f4 ||\
f2fg {fg}a2g2 {gfe}f4 | ~d2fe (dc).B.A (GF).E.D |\
~C2FA ~c2dB {B}A2Bd | (cf).d.B ABGE [F4A,4] |]
% = = = = = = = = = =
% Voice 2 preserves the staff layout in the book.
V: 2 clef=bass middle=d
|: "_Dolce."\
f2F2 f2c2 F2f2 | d2z2 B2z2 c2z2 | f2F2 f2c2 F2f2 | d2B2 c2C2 F4 :| a2c'2 f2c'2 a2c'2 | b4 a2f2 [c'4c4] |
a2c'2 f2c'2 a2c'2 | b4 c'2c2 f4 || a2c'2 f2c'2 a2c'2 | b4 a2f2 c2B2 | A2F2 A2G2 F2B2 | A2B2 c2C2 F4 |]
% = = = = = = = = = =
